Newaita-dark/apps/24/com.github.bcedu.shutdownscheduler.svg

<svg height="24pt" viewBox="0 0 24 24" width="24pt" xmlns="http://www.w3.org/2000/svg" xmlns:xlink="http://www.w3.org/1999/xlink"><linearGradient id="a"><stop offset="0" stop-opacity=".313725"/><stop offset=".222222" stop-opacity=".27451"/><stop offset="1" stop-opacity="0"/></linearGradient><radialGradient id="b" cx="450.90894" cy="189.57936" gradientTransform="matrix(.00000013 -.0585994 -.105479 -.00000008 33.392364 47.696499)" gradientUnits="userSpaceOnUse" r="21.166656" xlink:href="#a"/><radialGradient id="c" cx="450.90894" cy="189.57936" gradientTransform="matrix(-.00000013 .0585994 .105479 .00000008 -9.57759 -5.645611)" gradientUnits="userSpaceOnUse" r="21.166656" xlink:href="#a"/><radialGradient id="d" cx="450.90894" cy="189.57936" gradientTransform="matrix(-.00000013 -.0585994 .105479 -.00000008 -9.57759 47.696499)" gradientUnits="userSpaceOnUse" r="21.166656" xlink:href="#a"/><radialGradient id="e" cx="450.90894" cy="189.57936" gradientTransform="matrix(.00000013 .0585994 -.105479 .00000008 33.392363 -5.645611)" gradientUnits="userSpaceOnUse" r="21.166656" xlink:href="#a"/><linearGradient id="f" gradientTransform="matrix(.01002 0 0 .0468795 9.349039 10.079088)" gradientUnits="userSpaceOnUse" x1="255.32306" x2="255.32304" y1="233.5" y2="254.66666"><stop offset="0" stop-opacity=".27451"/><stop offset="1" stop-opacity="0"/></linearGradient><linearGradient id="g" gradientUnits="userSpaceOnUse" x1="254" x2="254" y1="-168.66667" y2="233.5"><stop offset="0" stop-color="#616161"/><stop offset="1" stop-color="#424242"/></linearGradient><linearGradient id="h" gradientUnits="userSpaceOnUse" x1="11.90736" x2="11.90736" y1="21.0253985937" y2="2.17207772546"><stop offset="0" stop-color="#bdbdbd"/><stop offset="1" stop-color="#e0e0e0"/></linearGradient><path d="m13.644531 21.027344h1.984375v-.996094h-1.984375zm0 0" fill="url(#b)"/><path d="m10.171875 21.027344h-1.984375v.992187h1.984375zm0 0" fill="url(#c)"/><path d="m10.171875 21.027344h-1.984375v-.996094h1.984375zm0 0" fill="url(#d)"/><path d="m13.644531 21.027344h1.984375v.992187h-1.984375zm0 0" fill="url(#e)"/><path d="m10.171875 20.777344h3.472656v1.242187h-3.472656zm0 0" fill="url(#f)"/><path d="m253.975747-168.671091c111.072726 0 201.147458 89.991406 201.147458 201.064133 0 111.072726-90.074732 201.147458-201.147458 201.147458-110.989402 0-201.064133-90.074732-201.064133-201.147458 0-111.072727 90.074731-201.064133 201.064133-201.064133zm0 0" fill="url(#g)" stroke="#333" stroke-linecap="round" stroke-width="3" transform="matrix(.0468795 0 0 .0468795 0 10.079087)"/><path d="m11.90625 21.027344c-5.222656 0-9.425781-4.207032-9.425781-9.429688 0-.03125 0-.058594 0-.089844.050781 5.179688 4.234375 9.332032 9.425781 9.332032s9.378906-4.152344 9.425781-9.332032c0 .03125.003907.058594.003907.089844 0 5.222656-4.207032 9.429688-9.429688 9.429688zm0 0" fill-opacity=".196078"/><path d="m11.90625 2.171875c-5.222656 0-9.425781 4.203125-9.425781 9.425781v.09375c.050781-5.179687 4.234375-9.335937 9.425781-9.335937s9.378906 4.15625 9.425781 9.335937c0-.03125.003907-.0625.003907-.09375 0-5.222656-4.207032-9.425781-9.429688-9.425781zm0 0" fill="#fff" fill-opacity=".392157"/><path d="m11.90625 2.101562c-5.257812 0-9.496094 4.238282-9.496094 9.496094 0 5.261719 4.238282 9.5 9.496094 9.5 5.261719 0 9.5-4.238281 9.5-9.5 0-5.257812-4.238281-9.496094-9.5-9.496094zm0 .140626c5.1875 0 9.359375 4.171874 9.359375 9.355468 0 5.1875-4.171875 9.359375-9.359375 9.359375-5.183594 0-9.355469-4.171875-9.355469-9.359375 0-5.183594 4.171875-9.355468 9.355469-9.355468zm0 0" fill="#212121"/><path d="m11.898438 6.136719c-.273438.003906-.492188.226562-.488282.5v4.960937c0 .273438.222656.496094.496094.496094h3.472656c.179688.003906.347656-.089844.4375-.246094.089844-.152344.089844-.34375 0-.5-.089844-.152344-.257812-.246094-.4375-.246094h-2.976562v-4.464843c.003906-.132813-.050782-.261719-.144532-.355469-.09375-.097656-.222656-.148438-.359374-.144531zm2.847656.3125c-.21875.003906-.40625.15625-.460938.371093-.054687.210938.035156.4375.226563.546876 1.417969.871093 2.359375 2.433593 2.359375 4.230468 0 2.757813-2.207032 4.964844-4.964844 4.964844s-4.960938-2.207031-4.960938-4.964844c0-1.796875.941407-3.359375 2.359376-4.230468.191406-.113282.28125-.339844.222656-.554688s-.253906-.363281-.476563-.363281c-.09375-.003907-.1875.023437-.265625.074219-1.703125 1.046874-2.832031 2.929687-2.832031 5.074218 0 3.289063 2.664063 5.953125 5.953125 5.953125s5.953125-2.664062 5.953125-5.953125c0-2.144531-1.128906-4.027344-2.828125-5.074218-.085938-.050782-.183594-.078126-.285156-.074219zm0 0" fill="url(#h)"/><path d="m11.898438 6.136719c-.273438.003906-.492188.226562-.488282.5v.316406c-.003906-.273437.214844-.5.488282-.503906.136718-.003907.265624.050781.359374.144531s.148438.222656.144532.359375v-.316406c.003906-.132813-.050782-.261719-.144532-.355469-.09375-.097656-.222656-.148438-.359374-.144531zm2.847656.3125c-.15625.003906-.300782.082031-.386719.210937-.089844.128906-.113281.289063-.066406.4375.066406-.195312.246093-.328125.453125-.335937.101562-.003907.199218.023437.285156.078125 1.660156 1.019531 2.773438 2.835937 2.828125 4.917968 0-.050781 0-.105468 0-.160156 0-2.144531-1.128906-4.027344-2.828125-5.074218-.085938-.050782-.183594-.078126-.285156-.074219zm-5.695313 0c-.09375-.003907-.1875.023437-.265625.074219-1.703125 1.046874-2.832031 2.929687-2.832031 5.074218 0 .054688.003906.109375.003906.160156.050781-2.082031 1.167969-3.898437 2.828125-4.917968.078125-.050782.171875-.078125.265625-.078125.214844 0 .402344.136719.46875.339843.050781-.152343.027344-.316406-.066406-.445312s-.242187-.207031-.402344-.207031zm3.351563 4.652343v.316407h2.976562c.21875-.003907.410156.132812.480469.335937.050781-.152344.023437-.320312-.070313-.449218-.097656-.128907-.25-.203126-.410156-.203126zm-5.453125.652344c-.003907.054688-.003907.105469-.003907.160156 0 2.757813 2.203126 4.960938 4.960938 4.960938s4.964844-2.203125 4.964844-4.960938c0-.054687-.003906-.105468-.003906-.160156-.082032 2.683594-2.253907 4.808594-4.960938 4.808594-2.703125 0-4.875-2.125-4.957031-4.808594zm0 0" fill="#fff"/><path d="m14.335938 7.191406c-.136719.234375-.058594.535156.175781.671875 1.351562.832031 2.269531 2.289063 2.351562 3.984375.003907-.082031.007813-.167968.007813-.25 0-1.796875-.941406-3.359375-2.359375-4.230468-.074219-.042969-.132813-.105469-.175781-.175782zm-4.855469 0c-.042969.074219-.105469.132813-.175781.175782-1.417969.871093-2.359376 2.433593-2.359376 4.230468 0 .082032 0 .167969.007813.25.082031-1.695312 1-3.152344 2.351563-3.984375.230468-.136719.308593-.4375.175781-.671875zm1.929687 4.40625v.496094c0 .273438.222656.496094.496094.496094h3.472656c.179688.003906.347656-.089844.4375-.246094.089844-.152344.089844-.34375 0-.496094-.089844.152344-.257812.25-.4375.246094h-3.472656c-.273438 0-.496094-.222656-.496094-.496094zm-5.449218.25c-.003907.082032-.007813.164063-.007813.246094 0 3.289062 2.664063 5.953125 5.953125 5.953125s5.953125-2.664063 5.953125-5.953125c0-.082031 0-.164062-.003906-.246094-.132813 3.171875-2.742188 5.703125-5.949219 5.703125-3.203125 0-5.816406-2.53125-5.945312-5.703125zm0 0" fill-opacity=".235294"/><path d="m959.278484 494.755909c-22.045139.314931-39.68125 18.265972-39.36632 40.311112v399.96181c0 22.045139 17.951042 39.996181 39.996181 39.996181h279.973268c14.486806.314931 28.02882-7.243403 35.272223-19.840625 7.243402-12.282292 7.243402-27.713889 0-40.311112-7.243403-12.282291-20.785417-19.840625-35.272223-19.840625h-239.977087v-359.965629c.314931-10.707639-4.094097-21.100348-11.65243-28.658681-7.558334-7.873264-17.951042-11.967362-28.973612-11.652431zm229.584378 25.194445c-17.636111.31493-32.752778 12.597222-37.161806 29.918403-4.409028 17.00625 2.834375 35.272223 18.265973 44.090278 114.319793 70.229515 190.218058 196.201739 190.218058 341.069796 0 222.340975-177.935767 400.276741-400.276742 400.276741s-399.96181-177.935766-399.96181-400.276741c0-144.868057 75.898265-270.840281 190.218058-341.069796 15.431597-9.132986 22.675-27.398958 17.951042-44.720139-4.723959-17.321181-20.470487-29.288542-38.421529-29.288542-7.558333-.314931-15.116666 1.889583-21.415278 5.98368-137.309724 84.40139-228.324655 236.19792-228.324655 409.094797 0 265.171531 214.782641 479.954173 479.954172 479.954173 265.171532 0 479.954173-214.782642 479.954173-479.954173 0-172.896877-91.014932-324.693407-228.009725-409.094797-6.928472-4.094097-14.801736-6.298611-22.989931-5.98368zm0 0" fill="none" stroke="#212121" stroke-linecap="round" stroke-linejoin="round" stroke-width="11.338583" transform="scale(.0124035)"/></svg>

<?xml version="1.0" encoding="UTF-8"?>
<svg xmlns="http://www.w3.org/2000/svg" xmlns:xlink="http://www.w3.org/1999/xlink" width="24pt" height="24pt" viewBox="0 0 24 24" version="1.1">
<defs>
<radialGradient id="radial0" gradientUnits="userSpaceOnUse" cx="450.90894" cy="189.57936" fx="450.90894" fy="189.57936" r="21.166656" gradientTransform="matrix(0.000000130628,-0.0585994,-0.105479,-0.0000000761539,33.392364,47.696499)">
<stop offset="0" style="stop-color:rgb(0%,0%,0%);stop-opacity:0.313725;"/>
<stop offset="0.222222" style="stop-color:rgb(0%,0%,0%);stop-opacity:0.27451;"/>
<stop offset="1" style="stop-color:rgb(0%,0%,0%);stop-opacity:0;"/>
</radialGradient>
<radialGradient id="radial1" gradientUnits="userSpaceOnUse" cx="450.90894" cy="189.57936" fx="450.90894" fy="189.57936" r="21.166656" gradientTransform="matrix(-0.000000130628,0.0585994,0.105479,0.0000000761539,-9.57759,-5.645611)">
<stop offset="0" style="stop-color:rgb(0%,0%,0%);stop-opacity:0.313725;"/>
<stop offset="0.222222" style="stop-color:rgb(0%,0%,0%);stop-opacity:0.27451;"/>
<stop offset="1" style="stop-color:rgb(0%,0%,0%);stop-opacity:0;"/>
</radialGradient>
<radialGradient id="radial2" gradientUnits="userSpaceOnUse" cx="450.90894" cy="189.57936" fx="450.90894" fy="189.57936" r="21.166656" gradientTransform="matrix(-0.000000130628,-0.0585994,0.105479,-0.0000000761539,-9.57759,47.696499)">
<stop offset="0" style="stop-color:rgb(0%,0%,0%);stop-opacity:0.313725;"/>
<stop offset="0.222222" style="stop-color:rgb(0%,0%,0%);stop-opacity:0.27451;"/>
<stop offset="1" style="stop-color:rgb(0%,0%,0%);stop-opacity:0;"/>
</radialGradient>
<radialGradient id="radial3" gradientUnits="userSpaceOnUse" cx="450.90894" cy="189.57936" fx="450.90894" fy="189.57936" r="21.166656" gradientTransform="matrix(0.000000130628,0.0585994,-0.105479,0.0000000761539,33.392363,-5.645611)">
<stop offset="0" style="stop-color:rgb(0%,0%,0%);stop-opacity:0.313725;"/>
<stop offset="0.222222" style="stop-color:rgb(0%,0%,0%);stop-opacity:0.27451;"/>
<stop offset="1" style="stop-color:rgb(0%,0%,0%);stop-opacity:0;"/>
</radialGradient>
<linearGradient id="linear0" gradientUnits="userSpaceOnUse" x1="255.32306" y1="233.5" x2="255.32304" y2="254.66666" gradientTransform="matrix(0.01002,0,0,0.0468795,9.349039,10.079088)">
<stop offset="0" style="stop-color:rgb(0%,0%,0%);stop-opacity:0.27451;"/>
<stop offset="1" style="stop-color:rgb(0%,0%,0%);stop-opacity:0;"/>
</linearGradient>
<linearGradient id="linear1" gradientUnits="userSpaceOnUse" x1="254" y1="-168.66667" x2="254" y2="233.5" gradientTransform="matrix(1,0,0,1,0,0)">
<stop offset="0" style="stop-color:rgb(38.039216%,38.039216%,38.039216%);stop-opacity:1;"/>
<stop offset="1" style="stop-color:rgb(25.882353%,25.882353%,25.882353%);stop-opacity:1;"/>
</linearGradient>
<linearGradient id="linear2" gradientUnits="userSpaceOnUse" x1="960" y1="1695.1182" x2="960" y2="175.11813" gradientTransform="matrix(0.0124035,0,0,0.0124035,0,0)">
<stop offset="0" style="stop-color:rgb(74.117647%,74.117647%,74.117647%);stop-opacity:1;"/>
<stop offset="1" style="stop-color:rgb(87.843137%,87.843137%,87.843137%);stop-opacity:1;"/>
</linearGradient>
</defs>
<g id="surface1">
<path style=" stroke:none;fill-rule:nonzero;fill:url(#radial0);" d="M 13.644531 21.027344 L 15.628906 21.027344 L 15.628906 20.03125 L 13.644531 20.03125 Z M 13.644531 21.027344 "/>
<path style=" stroke:none;fill-rule:nonzero;fill:url(#radial1);" d="M 10.171875 21.027344 L 8.1875 21.027344 L 8.1875 22.019531 L 10.171875 22.019531 Z M 10.171875 21.027344 "/>
<path style=" stroke:none;fill-rule:nonzero;fill:url(#radial2);" d="M 10.171875 21.027344 L 8.1875 21.027344 L 8.1875 20.03125 L 10.171875 20.03125 Z M 10.171875 21.027344 "/>
<path style=" stroke:none;fill-rule:nonzero;fill:url(#radial3);" d="M 13.644531 21.027344 L 15.628906 21.027344 L 15.628906 22.019531 L 13.644531 22.019531 Z M 13.644531 21.027344 "/>
<path style=" stroke:none;fill-rule:nonzero;fill:url(#linear0);" d="M 10.171875 20.777344 L 13.644531 20.777344 L 13.644531 22.019531 L 10.171875 22.019531 Z M 10.171875 20.777344 "/>
<path style="fill-rule:nonzero;fill:url(#linear1);stroke-width:3;stroke-linecap:round;stroke-linejoin:miter;stroke:rgb(20%,20%,20%);stroke-opacity:1;stroke-miterlimit:4;" d="M 253.975747 -168.671091 C 365.048473 -168.671091 455.123205 -78.679685 455.123205 32.393042 C 455.123205 143.465768 365.048473 233.5405 253.975747 233.5405 C 142.986345 233.5405 52.911614 143.465768 52.911614 32.393042 C 52.911614 -78.679685 142.986345 -168.671091 253.975747 -168.671091 Z M 253.975747 -168.671091 " transform="matrix(0.0468795,0,0,0.0468795,0,10.079087)"/>
<path style=" stroke:none;fill-rule:nonzero;fill:rgb(0%,0%,0%);fill-opacity:0.196078;" d="M 11.90625 21.027344 C 6.683594 21.027344 2.480469 16.820312 2.480469 11.597656 C 2.480469 11.566406 2.480469 11.539062 2.480469 11.507812 C 2.53125 16.6875 6.714844 20.839844 11.90625 20.839844 C 17.097656 20.839844 21.285156 16.6875 21.332031 11.507812 C 21.332031 11.539062 21.335938 11.566406 21.335938 11.597656 C 21.335938 16.820312 17.128906 21.027344 11.90625 21.027344 Z M 11.90625 21.027344 "/>
<path style=" stroke:none;fill-rule:nonzero;fill:rgb(100%,100%,100%);fill-opacity:0.392157;" d="M 11.90625 2.171875 C 6.683594 2.171875 2.480469 6.375 2.480469 11.597656 C 2.480469 11.628906 2.480469 11.660156 2.480469 11.691406 C 2.53125 6.511719 6.714844 2.355469 11.90625 2.355469 C 17.097656 2.355469 21.285156 6.511719 21.332031 11.691406 C 21.332031 11.660156 21.335938 11.628906 21.335938 11.597656 C 21.335938 6.375 17.128906 2.171875 11.90625 2.171875 Z M 11.90625 2.171875 "/>
<path style=" stroke:none;fill-rule:nonzero;fill:rgb(12.941176%,12.941176%,12.941176%);fill-opacity:1;" d="M 11.90625 2.101562 C 6.648438 2.101562 2.410156 6.339844 2.410156 11.597656 C 2.410156 16.859375 6.648438 21.097656 11.90625 21.097656 C 17.167969 21.097656 21.40625 16.859375 21.40625 11.597656 C 21.40625 6.339844 17.167969 2.101562 11.90625 2.101562 Z M 11.90625 2.242188 C 17.09375 2.242188 21.265625 6.414062 21.265625 11.597656 C 21.265625 16.785156 17.09375 20.957031 11.90625 20.957031 C 6.722656 20.957031 2.550781 16.785156 2.550781 11.597656 C 2.550781 6.414062 6.722656 2.242188 11.90625 2.242188 Z M 11.90625 2.242188 "/>
<path style=" stroke:none;fill-rule:nonzero;fill:url(#linear2);" d="M 11.898438 6.136719 C 11.625 6.140625 11.40625 6.363281 11.410156 6.636719 L 11.410156 11.597656 C 11.410156 11.871094 11.632812 12.09375 11.90625 12.09375 L 15.378906 12.09375 C 15.558594 12.097656 15.726562 12.003906 15.816406 11.847656 C 15.90625 11.695312 15.90625 11.503906 15.816406 11.347656 C 15.726562 11.195312 15.558594 11.101562 15.378906 11.101562 L 12.402344 11.101562 L 12.402344 6.636719 C 12.40625 6.503906 12.351562 6.375 12.257812 6.28125 C 12.164062 6.183594 12.035156 6.132812 11.898438 6.136719 Z M 14.746094 6.449219 C 14.527344 6.453125 14.339844 6.605469 14.285156 6.820312 C 14.230469 7.03125 14.320312 7.257812 14.511719 7.367188 C 15.929688 8.238281 16.871094 9.800781 16.871094 11.597656 C 16.871094 14.355469 14.664062 16.5625 11.90625 16.5625 C 9.148438 16.5625 6.945312 14.355469 6.945312 11.597656 C 6.945312 9.800781 7.886719 8.238281 9.304688 7.367188 C 9.496094 7.253906 9.585938 7.027344 9.527344 6.8125 C 9.46875 6.597656 9.273438 6.449219 9.050781 6.449219 C 8.957031 6.445312 8.863281 6.472656 8.785156 6.523438 C 7.082031 7.570312 5.953125 9.453125 5.953125 11.597656 C 5.953125 14.886719 8.617188 17.550781 11.90625 17.550781 C 15.195312 17.550781 17.859375 14.886719 17.859375 11.597656 C 17.859375 9.453125 16.730469 7.570312 15.03125 6.523438 C 14.945312 6.472656 14.847656 6.445312 14.746094 6.449219 Z M 14.746094 6.449219 "/>
<path style=" stroke:none;fill-rule:nonzero;fill:rgb(100%,100%,100%);fill-opacity:1;" d="M 11.898438 6.136719 C 11.625 6.140625 11.40625 6.363281 11.410156 6.636719 L 11.410156 6.953125 C 11.40625 6.679688 11.625 6.453125 11.898438 6.449219 C 12.035156 6.445312 12.164062 6.5 12.257812 6.59375 C 12.351562 6.6875 12.40625 6.816406 12.402344 6.953125 L 12.402344 6.636719 C 12.40625 6.503906 12.351562 6.375 12.257812 6.28125 C 12.164062 6.183594 12.035156 6.132812 11.898438 6.136719 Z M 14.746094 6.449219 C 14.589844 6.453125 14.445312 6.53125 14.359375 6.660156 C 14.269531 6.789062 14.246094 6.949219 14.292969 7.097656 C 14.359375 6.902344 14.539062 6.769531 14.746094 6.761719 C 14.847656 6.757812 14.945312 6.785156 15.03125 6.839844 C 16.691406 7.859375 17.804688 9.675781 17.859375 11.757812 C 17.859375 11.707031 17.859375 11.652344 17.859375 11.597656 C 17.859375 9.453125 16.730469 7.570312 15.03125 6.523438 C 14.945312 6.472656 14.847656 6.445312 14.746094 6.449219 Z M 9.050781 6.449219 C 8.957031 6.445312 8.863281 6.472656 8.785156 6.523438 C 7.082031 7.570312 5.953125 9.453125 5.953125 11.597656 C 5.953125 11.652344 5.957031 11.707031 5.957031 11.757812 C 6.007812 9.675781 7.125 7.859375 8.785156 6.839844 C 8.863281 6.789062 8.957031 6.761719 9.050781 6.761719 C 9.265625 6.761719 9.453125 6.898438 9.519531 7.101562 C 9.570312 6.949219 9.546875 6.785156 9.453125 6.65625 C 9.359375 6.527344 9.210938 6.449219 9.050781 6.449219 Z M 12.402344 11.101562 L 12.402344 11.417969 L 15.378906 11.417969 C 15.597656 11.414062 15.789062 11.550781 15.859375 11.753906 C 15.910156 11.601562 15.882812 11.433594 15.789062 11.304688 C 15.691406 11.175781 15.539062 11.101562 15.378906 11.101562 Z M 6.949219 11.753906 C 6.945312 11.808594 6.945312 11.859375 6.945312 11.914062 C 6.945312 14.671875 9.148438 16.875 11.90625 16.875 C 14.664062 16.875 16.871094 14.671875 16.871094 11.914062 C 16.871094 11.859375 16.867188 11.808594 16.867188 11.753906 C 16.785156 14.4375 14.613281 16.5625 11.90625 16.5625 C 9.203125 16.5625 7.03125 14.4375 6.949219 11.753906 Z M 6.949219 11.753906 "/>
<path style=" stroke:none;fill-rule:nonzero;fill:rgb(0%,0%,0%);fill-opacity:0.235294;" d="M 14.335938 7.191406 C 14.199219 7.425781 14.277344 7.726562 14.511719 7.863281 C 15.863281 8.695312 16.78125 10.152344 16.863281 11.847656 C 16.867188 11.765625 16.871094 11.679688 16.871094 11.597656 C 16.871094 9.800781 15.929688 8.238281 14.511719 7.367188 C 14.4375 7.324219 14.378906 7.261719 14.335938 7.191406 Z M 9.480469 7.191406 C 9.4375 7.265625 9.375 7.324219 9.304688 7.367188 C 7.886719 8.238281 6.945312 9.800781 6.945312 11.597656 C 6.945312 11.679688 6.945312 11.765625 6.953125 11.847656 C 7.035156 10.152344 7.953125 8.695312 9.304688 7.863281 C 9.535156 7.726562 9.613281 7.425781 9.480469 7.191406 Z M 11.410156 11.597656 L 11.410156 12.09375 C 11.410156 12.367188 11.632812 12.589844 11.90625 12.589844 L 15.378906 12.589844 C 15.558594 12.59375 15.726562 12.5 15.816406 12.34375 C 15.90625 12.191406 15.90625 12 15.816406 11.847656 C 15.726562 12 15.558594 12.097656 15.378906 12.09375 L 11.90625 12.09375 C 11.632812 12.09375 11.410156 11.871094 11.410156 11.597656 Z M 5.960938 11.847656 C 5.957031 11.929688 5.953125 12.011719 5.953125 12.09375 C 5.953125 15.382812 8.617188 18.046875 11.90625 18.046875 C 15.195312 18.046875 17.859375 15.382812 17.859375 12.09375 C 17.859375 12.011719 17.859375 11.929688 17.855469 11.847656 C 17.722656 15.019531 15.113281 17.550781 11.90625 17.550781 C 8.703125 17.550781 6.089844 15.019531 5.960938 11.847656 Z M 5.960938 11.847656 "/>
<path style="fill:none;stroke-width:11.338583;stroke-linecap:round;stroke-linejoin:round;stroke:rgb(12.941176%,12.941176%,12.941176%);stroke-opacity:1;stroke-miterlimit:4;" d="M 959.278484 494.755909 C 937.233345 495.07084 919.597234 513.021881 919.912164 535.067021 L 919.912164 935.028831 C 919.912164 957.07397 937.863206 975.025012 959.908345 975.025012 L 1239.881613 975.025012 C 1254.368419 975.339943 1267.910433 967.781609 1275.153836 955.184387 C 1282.397238 942.902095 1282.397238 927.470498 1275.153836 914.873275 C 1267.910433 902.590984 1254.368419 895.03265 1239.881613 895.03265 L 999.904526 895.03265 L 999.904526 535.067021 C 1000.219457 524.359382 995.810429 513.966673 988.252096 506.40834 C 980.693762 498.535076 970.301054 494.440978 959.278484 494.755909 Z M 1188.862862 519.950354 C 1171.226751 520.265284 1156.110084 532.547576 1151.701056 549.868757 C 1147.292028 566.875007 1154.535431 585.14098 1169.967029 593.959035 C 1284.286822 664.18855 1360.185087 790.160774 1360.185087 935.028831 C 1360.185087 1157.369806 1182.24932 1335.305572 959.908345 1335.305572 C 737.56737 1335.305572 559.946535 1157.369806 559.946535 935.028831 C 559.946535 790.160774 635.8448 664.18855 750.164593 593.959035 C 765.59619 584.826049 772.839593 566.560077 768.115635 549.238896 C 763.391676 531.917715 747.645148 519.950354 729.694106 519.950354 C 722.135773 519.635423 714.57744 521.839937 708.278828 525.934034 C 570.969104 610.335424 479.954173 762.131954 479.954173 935.028831 C 479.954173 1200.200362 694.736814 1414.983004 959.908345 1414.983004 C 1225.079877 1414.983004 1439.862518 1200.200362 1439.862518 935.028831 C 1439.862518 762.131954 1348.847586 610.335424 1211.852793 525.934034 C 1204.924321 521.839937 1197.051057 519.635423 1188.862862 519.950354 Z M 1188.862862 519.950354 " transform="matrix(0.0124035,0,0,0.0124035,0,0)"/>
</g>
</svg>
